Origami/32x32/apps/maxima.svg

<svg width="32" height="32" version="1.1" viewBox="0 0 32 32" xmlns="http://www.w3.org/2000/svg">
 <g transform="translate(0,-1020.3622)">
  <circle cx="16" cy="1037.362" r="14" style="opacity:.2"/>
  <circle cx="16" cy="1036.362" r="14" style="fill:#404b8b"/>
  <path d="m7.92125 1030.3625c-0.4946428 0-0.92125 0.6121-0.92125 0.9999s0.4266072 0.9997 0.92125 0.9997h0.5803572s1.0925386 0.1826 1.0660522 0.7602c-0.1794422 2.4566-1.1334 8.114-1.4303808 8.6578-0.3744692 0.5137-0.6176871 0.5824-1.24442 0.5824-0.4946428 0-0.8928571 0.6122-0.8928571 1s0.3982143 0.9997 0.8928571 0.9997h5.2427134c0.494643 0 0.892857-0.6119 0.892857-0.9997s-0.398214-1-0.892857-1c-1.075444 0.1359-1.890434-0.1376-2.1806905-0.9247-0.147962-0.767-0.09677-1.376 0.08669-3.37 0.330213-3.5888 0.512605-3.8265 0.996093-3.5337 0.333349 0.2018 2.752939 4.8444 3.547713 7.2317 0.327591 0.9841 0.721062 1.7484 0.874721 1.698 0.5399-0.1017 1.500487-2.8086 2.123897-4.2995 0.673566-1.6109 1.254477-3.2557 2.160416-4.8261 0.422988-0.4639 0.676643 0.3549 1.311381 4.2313 0.600575 3.6678 0.603699 3.1831 0.121373 3.7053-0.174424 0.1675-0.973855 0.087-1.21274 0.087-0.494643 0-0.892855 0.6122-0.892855 1s0.398212 0.9999 0.892855 0.9999h5.142705c0.494641 0 0.892855-0.6121 0.892855-0.9999s-0.398213-1-0.892855-1c-0.789962 0.09-0.752622-0.1499-0.997434-0.7393-0.752821-2.239-1.888345-7.4959-1.61836-8.55 0.296594-0.6333 0.924074-0.711 1.612232-0.711 0.494643 0 0.89643-0.6118 0.89643-0.9996 0-0.3879-0.401787-0.9999-0.89643-0.9999h-5.168142c-0.494643 0-0.977833 0.6143-0.935428 0.9999 0.106086 0.9646 0.621766 0.6249 0.935428 0.9996 0.465471 0.4453 0.231178 0.8209 0.04049 1.2772-0.679416 1.5899-1.753835 3.7053-1.753835 3.7053-0.285357 0.8048-0.896444 2.0377-1.337887 2.0181-0.358637-0.037-1.551914-2.6945-2.329799-4.2075-0.293556-0.6906-0.486663-1.3049-0.664842-1.7289-0.569955-0.8911 0.275013-1.0642 0.275013-1.0642 0.494643 0 0.892856-0.6118 0.892856-0.9996 0-0.3879-0.398214-0.9999-0.892856-0.9999z" style="opacity:.2"/>
  <path d="m7.92125 1029.3626c-0.4946428 0-0.92125 0.6121-0.92125 0.9999s0.4266072 0.9997 0.92125 0.9997h0.5803572s1.0925386 0.1826 1.0660522 0.7602c-0.1794422 2.4566-1.1334 8.114-1.4303808 8.6578-0.3744692 0.5137-0.6176871 0.5824-1.24442 0.5824-0.4946428 0-0.8928571 0.6122-0.8928571 1s0.3982143 0.9997 0.8928571 0.9997h5.2427134c0.494643 0 0.892857-0.6119 0.892857-0.9997s-0.398214-1-0.892857-1c-1.075444 0.1359-1.890434-0.1376-2.1806905-0.9247-0.147962-0.767-0.09677-1.376 0.08669-3.37 0.330213-3.5888 0.512605-3.8265 0.996094-3.5337 0.333348 0.2018 2.752939 4.8444 3.547713 7.2317 0.32759 0.9841 0.721062 1.7484 0.874721 1.698 0.5399-0.1017 1.500487-2.8086 2.123897-4.2995 0.673566-1.6109 1.254477-3.2557 2.160416-4.8261 0.422988-0.4639 0.676643 0.3549 1.311381 4.2313 0.600575 3.6678 0.603699 3.1831 0.121373 3.7053-0.174424 0.1675-0.973855 0.087-1.21274 0.087-0.494643 0-0.892855 0.6122-0.892855 1s0.398212 0.9999 0.892855 0.9999h5.142705c0.494641 0 0.892855-0.6121 0.892855-0.9999s-0.398213-1-0.892855-1c-0.789962 0.09-0.752622-0.1499-0.997434-0.7393-0.752821-2.239-1.888345-7.4959-1.61836-8.55 0.296593-0.6333 0.924074-0.711 1.612232-0.711 0.494643 0 0.89643-0.6118 0.89643-0.9996 0-0.3879-0.401787-0.9999-0.89643-0.9999h-5.168142c-0.494643 0-0.977833 0.6143-0.935428 0.9999 0.106086 0.9646 0.621766 0.6249 0.935428 0.9996 0.465471 0.4453 0.231178 0.8209 0.04049 1.2772-0.679416 1.5899-1.753835 3.7053-1.753835 3.7053-0.285357 0.8048-0.896444 2.0377-1.337887 2.0181-0.358637-0.037-1.551914-2.6945-2.329799-4.2075-0.293556-0.6906-0.486663-1.3049-0.664842-1.7289-0.569955-0.8911 0.275013-1.0642 0.275013-1.0642 0.494643 0 0.892856-0.6118 0.892856-0.9996 0-0.3879-0.398214-0.9999-0.892856-0.9999z" style="fill:#f26265"/>
  <path transform="translate(0,1020.3622)" d="M 16 2 A 14 14 0 0 0 2 16 A 14 14 0 0 0 2.0214844 16.585938 A 14 14 0 0 1 16 3 A 14 14 0 0 1 29.978516 16.414062 A 14 14 0 0 0 30 16 A 14 14 0 0 0 16 2 z" style="fill:#ffffff;opacity:.1"/>
  <path transform="translate(0,1020.3622)" d="m7.921875 9c-0.4946428 0-0.921875 0.6122-0.921875 1 0 0.150426 0.0780967 0.330928 0.1855469 0.5 0.1696016-0.266518 0.4338527-0.5 0.7363281-0.5h5.242187c0.302854 0 0.55746 0.23306 0.71875 0.5 0.102438-0.169215 0.173829-0.349399 0.173829-0.5 0-0.3879-0.397937-1-0.892579-1h-5.242187zm11.013672 0c-0.494643 0-0.977952 0.6144-0.935547 1 0.027901 0.253694 0.084764 0.413459 0.158203 0.523438 0.174116-0.27631 0.466202-0.523438 0.777344-0.523438h5.167969c0.302708 0 0.556397 0.233225 0.71875 0.5 0.103239-0.16932 0.177734-0.349285 0.177734-0.5 0-0.3879-0.401841-1-0.896484-1h-5.167969zm-6.021485 3.128906c-0.192561 0.132777-0.373381 0.391479-0.02539 0.935547 0.178179 0.424 0.372459 1.037916 0.666016 1.728516 0.777884 1.513 1.971441 4.170031 2.330078 4.207031 0.441443 0.0196 1.052533-1.212778 1.33789-2.017578 0 0 1.074491-2.115178 1.753906-3.705078 0.170086-0.407 0.346641-0.753352 0.058594-1.138672-0.020145 0.046357-0.038548 0.090705-0.058594 0.138672-0.679415 1.5899-1.753906 3.705078-1.753906 3.705078-0.285357 0.8048-0.896447 2.037178-1.33789 2.017578-0.358637-0.037-1.552194-2.694031-2.330078-4.207031-0.282579-0.664775-0.46792-1.242371-0.640626-1.664063zm-3.4277339 0.373047c-0.2708765 2.682673-1.0764547 7.415844-1.3496093 7.916016-0.3744693 0.5137-0.6174078 0.582031-1.2441407 0.582031-0.4946428 0-0.8925781 0.6122-0.8925781 1 0 0.150363 0.0736402 0.330987 0.1757812 0.5 0.1613403-0.266631 0.4142475-0.5 0.7167969-0.5 0.6267329 0 0.8696714-0.068331 1.2441407-0.582031 0.2969808-0.5438 1.2521984-6.201603 1.4316406-8.658203 0.00453-0.098788-0.0321593-0.181072-0.0820313-0.257813zm13.003906 0.240235c-0.249383 1.103044 0.871405 6.293701 1.619141 8.517578 0.244812 0.5894 0.208085 0.830234 0.998047 0.740234 0.302853 0 0.555506 0.233025 0.716797 0.5 0.102437-0.16927 0.175781-0.349399 0.175781-0.5 0-0.3878-0.397936-1-0.892578-1-0.789962 0.09-0.753235-0.150834-0.998047-0.740234-0.610629-1.816101-1.459219-5.583752-1.619141-7.517578zm-12.597656 6.855468c-0.030102 0.599793-0.0202312 1.049657 0.0625 1.478516 0.2902569 0.7871 1.1042439 1.059728 2.1796879 0.923828 0.302549 0 0.557409 0.233369 0.71875 0.5 0.102141-0.169013 0.175781-0.349637 0.175781-0.5 0-0.3878-0.399888-1-0.894531-1-1.075444 0.1359-1.889431-0.136728-2.1796879-0.923828-0.0310384-0.160896-0.0483715-0.317282-0.0625-0.478516zm11.552734 1.03125c-0.05815 0.085303-0.146996 0.152653-0.267578 0.283203-0.174424 0.1675-0.974005 0.087891-1.21289 0.087891-0.494643 0-0.892578 0.6122-0.892578 1 0 0.150601 0.071391 0.33073 0.173828 0.5 0.16129-0.266975 0.415896-0.5 0.71875-0.5 0.238885 0 1.038466 0.079609 1.21289-0.087891 0.316331-0.342481 0.400457-0.351462 0.267578-1.283203z" style="fill:#ffffff;opacity:.2"/>
 </g>
</svg>

<svg xmlns="http://www.w3.org/2000/svg" width="32" height="32" version="1.1" viewBox="0 0 32 32">
 <g transform="translate(0,-1020.3622)">
  <circle style="opacity:0.2" cx="16" cy="1037.362" r="14"/>
  <circle style="fill:#404b8b" cx="16" cy="1036.362" r="14"/>
  <path style="opacity:0.2" d="m 7.92125,1030.3625 c -0.4946428,0 -0.92125,0.6121 -0.92125,0.9999 0,0.3878 0.4266072,0.9997 0.92125,0.9997 l 0.5803572,0 c 0,0 1.0925386,0.1826 1.0660522,0.7602 -0.1794422,2.4566 -1.1334,8.114 -1.4303808,8.6578 -0.3744692,0.5137 -0.6176871,0.5824 -1.24442,0.5824 -0.4946428,0 -0.8928571,0.6122 -0.8928571,1 0,0.3878 0.3982143,0.9997 0.8928571,0.9997 l 5.2427134,0 c 0.494643,0 0.892857,-0.6119 0.892857,-0.9997 0,-0.3878 -0.398214,-1 -0.892857,-1 -1.075444,0.1359 -1.890434,-0.1376 -2.1806905,-0.9247 -0.147962,-0.767 -0.09677,-1.376 0.08669,-3.37 0.330213,-3.5888 0.512605,-3.8265 0.996093,-3.5337 0.333349,0.2018 2.752939,4.8444 3.547713,7.2317 0.327591,0.9841 0.721062,1.7484 0.874721,1.698 0.5399,-0.1017 1.500487,-2.8086 2.123897,-4.2995 0.673566,-1.6109 1.254477,-3.2557 2.160416,-4.8261 0.422988,-0.4639 0.676643,0.3549 1.311381,4.2313 0.600575,3.6678 0.603699,3.1831 0.121373,3.7053 -0.174424,0.1675 -0.973855,0.087 -1.21274,0.087 -0.494643,0 -0.892855,0.6122 -0.892855,1 0,0.3878 0.398212,0.9999 0.892855,0.9999 l 5.142705,0 c 0.494641,0 0.892855,-0.6121 0.892855,-0.9999 0,-0.3878 -0.398213,-1 -0.892855,-1 -0.789962,0.09 -0.752622,-0.1499 -0.997434,-0.7393 -0.752821,-2.239 -1.888345,-7.4959 -1.61836,-8.55 0.296594,-0.6333 0.924074,-0.711 1.612232,-0.711 0.494643,0 0.89643,-0.6118 0.89643,-0.9996 0,-0.3879 -0.401787,-0.9999 -0.89643,-0.9999 l -5.168142,0 c -0.494643,0 -0.977833,0.6143 -0.935428,0.9999 0.106086,0.9646 0.621766,0.6249 0.935428,0.9996 0.465471,0.4453 0.231178,0.8209 0.04049,1.2772 -0.679416,1.5899 -1.753835,3.7053 -1.753835,3.7053 -0.285357,0.8048 -0.896444,2.0377 -1.337887,2.0181 -0.358637,-0.037 -1.551914,-2.6945 -2.329799,-4.2075 -0.293556,-0.6906 -0.486663,-1.3049 -0.664842,-1.7289 -0.569955,-0.8911 0.275013,-1.0642 0.275013,-1.0642 0.494643,0 0.892856,-0.6118 0.892856,-0.9996 0,-0.3879 -0.398214,-0.9999 -0.892856,-0.9999 z"/>
  <path style="fill:#f26265" d="m 7.92125,1029.3626 c -0.4946428,0 -0.92125,0.6121 -0.92125,0.9999 0,0.3878 0.4266072,0.9997 0.92125,0.9997 l 0.5803572,0 c 0,0 1.0925386,0.1826 1.0660522,0.7602 -0.1794422,2.4566 -1.1334,8.114 -1.4303808,8.6578 -0.3744692,0.5137 -0.6176871,0.5824 -1.24442,0.5824 -0.4946428,0 -0.8928571,0.6122 -0.8928571,1 0,0.3878 0.3982143,0.9997 0.8928571,0.9997 l 5.2427134,0 c 0.494643,0 0.892857,-0.6119 0.892857,-0.9997 0,-0.3878 -0.398214,-1 -0.892857,-1 -1.075444,0.1359 -1.890434,-0.1376 -2.1806905,-0.9247 -0.147962,-0.767 -0.09677,-1.376 0.08669,-3.37 0.330213,-3.5888 0.512605,-3.8265 0.996094,-3.5337 0.333348,0.2018 2.752939,4.8444 3.547713,7.2317 0.32759,0.9841 0.721062,1.7484 0.874721,1.698 0.5399,-0.1017 1.500487,-2.8086 2.123897,-4.2995 0.673566,-1.6109 1.254477,-3.2557 2.160416,-4.8261 0.422988,-0.4639 0.676643,0.3549 1.311381,4.2313 0.600575,3.6678 0.603699,3.1831 0.121373,3.7053 -0.174424,0.1675 -0.973855,0.087 -1.21274,0.087 -0.494643,0 -0.892855,0.6122 -0.892855,1 0,0.3878 0.398212,0.9999 0.892855,0.9999 l 5.142705,0 c 0.494641,0 0.892855,-0.6121 0.892855,-0.9999 0,-0.3878 -0.398213,-1 -0.892855,-1 -0.789962,0.09 -0.752622,-0.1499 -0.997434,-0.7393 -0.752821,-2.239 -1.888345,-7.4959 -1.61836,-8.55 0.296593,-0.6333 0.924074,-0.711 1.612232,-0.711 0.494643,0 0.89643,-0.6118 0.89643,-0.9996 0,-0.3879 -0.401787,-0.9999 -0.89643,-0.9999 l -5.168142,0 c -0.494643,0 -0.977833,0.6143 -0.935428,0.9999 0.106086,0.9646 0.621766,0.6249 0.935428,0.9996 0.465471,0.4453 0.231178,0.8209 0.04049,1.2772 -0.679416,1.5899 -1.753835,3.7053 -1.753835,3.7053 -0.285357,0.8048 -0.896444,2.0377 -1.337887,2.0181 -0.358637,-0.037 -1.551914,-2.6945 -2.329799,-4.2075 -0.293556,-0.6906 -0.486663,-1.3049 -0.664842,-1.7289 -0.569955,-0.8911 0.275013,-1.0642 0.275013,-1.0642 0.494643,0 0.892856,-0.6118 0.892856,-0.9996 0,-0.3879 -0.398214,-0.9999 -0.892856,-0.9999 z"/>
  <path style="opacity:0.1;fill:#ffffff" d="M 16 2 A 14 14 0 0 0 2 16 A 14 14 0 0 0 2.0214844 16.585938 A 14 14 0 0 1 16 3 A 14 14 0 0 1 29.978516 16.414062 A 14 14 0 0 0 30 16 A 14 14 0 0 0 16 2 z" transform="translate(0,1020.3622)"/>
  <path style="fill:#ffffff;opacity:0.2" d="M 7.921875 9 C 7.4272322 9 7 9.6122 7 10 C 7 10.150426 7.0780967 10.330928 7.1855469 10.5 C 7.3551485 10.233482 7.6193996 10 7.921875 10 L 13.164062 10 C 13.466916 10 13.721522 10.23306 13.882812 10.5 C 13.98525 10.330785 14.056641 10.150601 14.056641 10 C 14.056641 9.6121 13.658704 9 13.164062 9 L 7.921875 9 z M 18.935547 9 C 18.440904 9 17.957595 9.6144 18 10 C 18.027901 10.253694 18.084764 10.413459 18.158203 10.523438 C 18.332319 10.247128 18.624405 10 18.935547 10 L 24.103516 10 C 24.406224 10 24.659913 10.233225 24.822266 10.5 C 24.925505 10.33068 25 10.150715 25 10 C 25 9.6121 24.598159 9 24.103516 9 L 18.935547 9 z M 12.914062 12.128906 C 12.721501 12.261683 12.540681 12.520385 12.888672 13.064453 C 13.066851 13.488453 13.261131 14.102369 13.554688 14.792969 C 14.332572 16.305969 15.526129 18.963 15.884766 19 C 16.326209 19.0196 16.937299 17.787222 17.222656 16.982422 C 17.222656 16.982422 18.297147 14.867244 18.976562 13.277344 C 19.146648 12.870344 19.323203 12.523992 19.035156 12.138672 C 19.015011 12.185029 18.996608 12.229377 18.976562 12.277344 C 18.297147 13.867244 17.222656 15.982422 17.222656 15.982422 C 16.937299 16.787222 16.326209 18.0196 15.884766 18 C 15.526129 17.963 14.332572 15.305969 13.554688 13.792969 C 13.272109 13.128194 13.086768 12.550598 12.914062 12.128906 z M 9.4863281 12.501953 C 9.2154516 15.184626 8.4098734 19.917797 8.1367188 20.417969 C 7.7622495 20.931669 7.519311 21 6.8925781 21 C 6.3979353 21 6 21.6122 6 22 C 6 22.150363 6.0736402 22.330987 6.1757812 22.5 C 6.3371215 22.233369 6.5900287 22 6.8925781 22 C 7.519311 22 7.7622495 21.931669 8.1367188 21.417969 C 8.4336996 20.874169 9.3889172 15.216366 9.5683594 12.759766 C 9.5728894 12.660978 9.5362001 12.578694 9.4863281 12.501953 z M 22.490234 12.742188 C 22.240851 13.845232 23.361639 19.035889 24.109375 21.259766 C 24.354187 21.849166 24.31746 22.09 25.107422 22 C 25.410275 22 25.662928 22.233025 25.824219 22.5 C 25.926656 22.33073 26 22.150601 26 22 C 26 21.6122 25.602064 21 25.107422 21 C 24.31746 21.09 24.354187 20.849166 24.109375 20.259766 C 23.498746 18.443665 22.650156 14.676014 22.490234 12.742188 z M 9.8925781 19.597656 C 9.8624761 20.197449 9.8723469 20.647313 9.9550781 21.076172 C 10.245335 21.863272 11.059322 22.1359 12.134766 22 C 12.437315 22 12.692175 22.233369 12.853516 22.5 C 12.955657 22.330987 13.029297 22.150363 13.029297 22 C 13.029297 21.6122 12.629409 21 12.134766 21 C 11.059322 21.1359 10.245335 20.863272 9.9550781 20.076172 C 9.9240397 19.915276 9.9067066 19.75889 9.8925781 19.597656 z M 21.445312 20.628906 C 21.387162 20.714209 21.298316 20.781559 21.177734 20.912109 C 21.00331 21.079609 20.203729 21 19.964844 21 C 19.470201 21 19.072266 21.6122 19.072266 22 C 19.072266 22.150601 19.143657 22.33073 19.246094 22.5 C 19.407384 22.233025 19.66199 22 19.964844 22 C 20.203729 22 21.00331 22.079609 21.177734 21.912109 C 21.494065 21.569628 21.578191 21.560647 21.445312 20.628906 z" transform="translate(0,1020.3622)"/>
 </g>
</svg>
